!!!OTL: Daqi huagun xilianlian
!!!ARE: Asia, China,ÿJiangsu Yancheng
!! III, 428, 2)
!!!SCT: C1780
!!!YEM: Copyright 1995, estate of Helmut Schaffrath.
**kern
*ICvox
*Ivox
*M2/4
*k[]
*C:
{8dd
8ee
8cc
8cc
=1
8dd
8ee
4cc
=2
8g
8a
8cc
8dd
=3
2a}
=4
{8a
8cc
8a
8g
=5
8d
8e
4g
=6
8g
8d
16e
16g
16e
16d
=7
2c}
=8
{8e
8c
4d
=9
8g
8e
4d
=10
8g
16a
16cc
8g
8e
=11
8g
8e
4d}
=12
{8dd
8ee
8dd
8cc
=13
8a
8cc
8a
8g
=14
8dd
16dd
16ee
8dd
8cc
=15
8a
8cc
8a
8g}
=16
{8.g
16a
8g
8e
=17
8d
8c
8d
8r}
=18
{8g
4g
8a
=19
8dd
8ee
4cc
=20
8ee
8dd
8cc
8a
=21
4.g}
{8a
=22
8ee
8dd
8cc
8dd
=23
2cc}
==
!!!AGN: Xiaodiao, Huagun diao
!!!AMT: simple duple
!!!AIN: vox
!!!EED: Helmut Schaffrath
!!!EEV: 1.0
*-
